!! 00000] TT[WS
!!!OTL: Jiang wugeng
!!!ARE: Asia, China, Shanxi Linxian
!! Ethnic Group: Han
!! WII, 69 (1)
!!!SCT: J0499
!!!YEM: Copyright 1995, estate of Helmut Schaffrath.
**kern
*ICvox
*Ivox
*M2/4
*k[b-e-]
*B-:
{8bb-
4bb-
8ccc
=1
8ddd
8fff
8ddd
8ccc
=2
8ddd
8bb-
8ccc
8ddd
=3
2bb-}
=4
{8fff
8fff
8fff
8ddd
=5
2ccc
=6
8bb-
8bb-
8aa
8gg
=7
2ff}
=8
{8bb-
8gg
4ff
=9
8bb-
8ddd
8ccc
8bb-
=10
8gg
8bb-
4ff
=11
8gg
8ff
8dd
8cc
=12
4b-
8g
8cc
=13
2b-}
==
!!!AGN: Xiaodiao. Qingge, Sichun
!!!ONB: ESAC (Essen Associative Code) Database: CHINA
!!!AMT: simple duple
!!!AIN: vox
!!!EED: Helmut Schaffrath
!!!EEV: 1.0
*-
